static/images/mobile/copyright/wikimania.svg

<?xml version="1.0" encoding="UTF-8" standalone="no"?>
<!-- Created with Inkscape (http://www.inkscape.org/) -->
<svg
   xmlns:dc="http://purl.org/dc/elements/1.1/"
   xmlns:cc="http://web.resource.org/cc/"
   xmlns:rdf="http://www.w3.org/1999/02/22-rdf-syntax-ns#"
   xmlns:svg="http://www.w3.org/2000/svg"
   xmlns="http://www.w3.org/2000/svg"
   xmlns:sodipodi="http://sodipodi.sourceforge.net/DTD/sodipodi-0.dtd"
   xmlns:inkscape="http://www.inkscape.org/namespaces/inkscape"
   width="98.617462"
   height="120.5"
   id="svg4603"
   sodipodi:version="0.32"
   inkscape:version="0.44.1"
   version="1.0"
   sodipodi:docbase="C:\Documents and Settings\Jon Harald Søby\Mine dokumenter\wikimedia"
   sodipodi:docname="Wikimania.svg">
  <defs
     id="defs4605" />
  <sodipodi:namedview
     id="base"
     pagecolor="#ffffff"
     bordercolor="#666666"
     borderopacity="1.0"
     gridtolerance="10000"
     guidetolerance="10"
     objecttolerance="10"
     inkscape:pageopacity="0.0"
     inkscape:pageshadow="2"
     inkscape:zoom="2.9988636"
     inkscape:cx="63.524447"
     inkscape:cy="54.716337"
     inkscape:document-units="px"
     inkscape:current-layer="layer1"
     inkscape:window-width="853"
     inkscape:window-height="573"
     inkscape:window-x="22"
     inkscape:window-y="29" />
  <metadata
     id="metadata4608">
    <rdf:RDF>
      <cc:Work
         rdf:about="">
        <dc:format>image/svg+xml</dc:format>
        <dc:type
           rdf:resource="http://purl.org/dc/dcmitype/StillImage" />
      </cc:Work>
    </rdf:RDF>
  </metadata>
  <g
     inkscape:label="Layer 1"
     inkscape:groupmode="layer"
     id="layer1"
     transform="translate(0.73733,-0.68366)">
    <g
       id="g4599"
       transform="translate(-260.9115,-414.9057)">
      <path
         id="path3712"
         d="M 357.16051,531.33936 C 357.14456,525.79052 356.26842,521.91308 355.18223,522.58438 C 354.76173,522.84426 354.15845,521.76077 353.84162,520.17662 C 353.44656,518.20129 352.70139,517.34238 351.46987,517.44285 C 350.17167,517.54877 349.58359,516.75821 349.34722,514.58936 C 348.75905,509.19241 347.17417,509.38832 347.17417,514.85798 C 347.17417,518.98164 346.87861,519.91317 345.71224,519.46559 C 344.90817,519.15705 343.97785,518.04617 343.64485,516.99698 C 343.31185,515.94779 342.49432,515.08936 341.82811,515.08936 C 341.09934,515.08936 340.17496,512.28313 339.50755,508.04461 C 337.89981,497.83422 334.70836,492.12626 329.02168,489.2905 C 323.30663,486.44059 321.61484,486.81223 311.64523,493.10764 L 303.99213,497.94025 L 299.50978,496.01889 C 294.24393,493.76169 292.08773,494.46963 290.17672,499.08321 C 289.47726,500.77186 288.70736,501.95588 288.46583,501.71436 C 288.22431,501.47283 288.74644,499.8834 289.62611,498.18229 C 290.50579,496.48118 290.77553,495.08936 290.22553,495.08936 C 289.67553,495.08936 288.44911,496.55186 287.50015,498.33936 C 286.17746,500.83084 285.68757,501.18093 285.40115,499.83936 C 284.96354,497.78967 284.04141,497.62212 282.37417,499.28936 C 281.44084,500.22269 281.17417,500.18825 281.17417,499.13437 C 281.17417,498.1044 280.73493,498.17689 279.34302,499.43655 C 278.33589,500.348 277.22176,500.80362 276.86718,500.44904 C 276.51261,500.09447 275.53663,500.37358 274.69834,501.0693 C 269.27682,505.56876 279.33713,486.98863 286.1489,479.92153 C 290.94466,474.94602 290.96772,474.93583 295.81515,475.65031 C 298.48761,476.04421 301.55587,476.68642 302.63349,477.07743 C 303.91954,477.54407 306.84039,476.72329 311.13349,474.68887 C 316.56567,472.11466 318.86052,471.59725 324.67417,471.63593 C 345.09303,471.77175 356.09793,486.95096 357.69205,517.17792 C 357.99405,522.90421 358.44246,529.50186 358.68852,531.83936 C 358.94279,534.25484 358.71252,536.08936 358.15504,536.08936 C 357.61556,536.08936 357.16803,533.95186 357.16051,531.33936 z "
         style="fill:#f30000;fill-opacity:1" />
      <path
         id="path1900"
         d="M 292.17417,465.0815 C 287.53654,463.36518 285.92167,463.20622 281.87495,464.06769 C 275.40373,465.4453 275.73075,465.51575 271.53193,461.83936 C 268.10017,458.83459 260.17417,447.78399 260.17417,446.00413 C 260.17417,445.57779 261.52417,445.61615 263.17417,446.08936 C 264.82417,446.56257 266.17417,446.70106 266.17417,446.39711 C 266.17417,446.09316 266.84917,446.40467 267.67417,447.08936 C 269.09741,448.27054 269.57166,447.82791 269.28131,445.58936 C 269.20997,445.03936 270.33292,445.93936 271.77676,447.58936 C 273.25889,449.28312 274.14774,449.82594 273.81815,448.83604 C 273.27639,447.20887 273.40663,447.19557 275.62808,448.65112 C 277.80375,450.07667 278.3008,450.07524 281.08513,448.6354 C 284.04929,447.10258 284.37476,447.16523 291.13636,450.57032 C 294.9797,452.50579 299.22595,454.08936 300.57248,454.08936 C 306.53869,454.08936 312.17417,444.74335 312.17417,434.84884 C 312.17417,432.71621 312.59177,431.22942 313.10217,431.54486 C 313.61258,431.86031 314.3179,431.21187 314.66956,430.10388 C 315.68953,426.89026 317.17417,427.7708 317.17417,431.58936 C 317.17417,433.51436 317.62417,435.08936 318.17417,435.08936 C 318.72417,435.08936 319.17417,433.73936 319.17417,432.08936 C 319.17417,430.08936 319.67417,429.08936 320.67417,429.08936 C 321.5075,429.08936 322.17417,428.20047 322.17417,427.08936 C 322.17417,425.98936 322.62417,425.08936 323.17417,425.08936 C 323.72417,425.08936 324.22763,422.95186 324.29297,420.33936 L 324.41176,415.58936 L 325.41121,421.08936 C 326.78128,428.62889 325.03734,445.34906 322.21523,451.73112 C 316.70757,464.1864 304.46119,469.62874 292.17417,465.0815 z "
         style="fill:#0082c0;fill-opacity:1" />
    </g>
  </g>
</svg>

<svg xmlns="http://www.w3.org/2000/svg" width="98.617" height="120.5" version="1.0"><path d="M357.16 531.34c-.015-5.55-.892-9.427-1.978-8.756-.42.26-1.024-.823-1.34-2.407-.395-1.976-1.14-2.835-2.372-2.734-1.298.106-1.886-.685-2.123-2.854-.588-5.397-2.173-5.2-2.173.269 0 4.124-.295 5.055-1.462 4.608-.804-.309-1.734-1.42-2.067-2.469-.333-1.05-1.15-1.908-1.817-1.908-.729 0-1.653-2.806-2.32-7.044-1.608-10.21-4.8-15.919-10.486-18.755-5.715-2.85-7.407-2.478-17.377 3.818l-7.653 4.832-4.482-1.921c-5.266-2.257-7.422-1.55-9.333 3.064-.7 1.689-1.47 2.873-1.711 2.631-.242-.241.28-1.83 1.16-3.532.88-1.7 1.15-3.093.6-3.093-.55 0-1.777 1.463-2.726 3.25-1.323 2.492-1.812 2.842-2.099 1.5-.437-2.05-1.36-2.217-3.027-.55-.933.934-1.2.9-1.2-.155 0-1.03-.44-.957-1.831.303-1.007.911-2.121 1.367-2.476 1.012-.354-.355-1.33-.075-2.169.62-5.421 4.5 4.64-14.08 11.45-21.147 4.797-4.976 4.82-4.986 9.667-4.272 2.673.394 5.74 1.036 6.818 1.427 1.287.467 4.207-.354 8.5-2.388 5.433-2.574 7.728-3.092 13.541-3.053 20.419.136 31.424 15.315 33.018 45.542.302 5.726.75 12.324.997 14.661.254 2.416.024 4.25-.534 4.25-.54 0-.987-2.137-.994-4.75z" style="fill:#f30000;fill-opacity:1" transform="translate(-260.174 -415.59)"/><path d="M292.174 465.082c-4.637-1.717-6.252-1.876-10.299-1.014-6.471 1.377-6.144 1.448-10.343-2.229-3.432-3.004-11.358-14.055-11.358-15.835 0-.426 1.35-.388 3 .085 1.65.474 3 .612 3 .308s.675.008 1.5.692c1.423 1.182 1.898.739 1.607-1.5-.071-.55 1.052.35 2.496 2 1.482 1.694 2.37 2.237 2.041 1.247-.542-1.627-.411-1.64 1.81-.185 2.176 1.426 2.673 1.424 5.457-.016 2.964-1.532 3.29-1.47 10.051 1.935 3.844 1.936 8.09 3.52 9.436 3.52 5.967 0 11.602-9.347 11.602-19.241 0-2.133.418-3.62.928-3.304.51.315 1.216-.333 1.568-1.441 1.02-3.214 2.504-2.333 2.504 1.485 0 1.925.45 3.5 1 3.5s1-1.35 1-3c0-2 .5-3 1.5-3 .834 0 1.5-.889 1.5-2 0-1.1.45-2 1-2s1.054-2.137 1.119-4.75l.119-4.75 1 5.5c1.37 7.54-.375 24.26-3.197 30.642-5.507 12.455-17.754 17.898-30.04 13.35z" style="fill:#0082c0;fill-opacity:1" transform="translate(-260.174 -415.59)"/></svg>
